X:1
T:Duetto in F Minor
T:Duetto in F Minor
T:CSWV F:18
T:Christoph Schaffrath
C:Christoph Schaffrath
%%score 1 { 2 | 3 }
L:1/8
Q:1/4=40
M:4/4
K:Ab
V:1 bass nm="Bassono"
V:2 treble nm="Cembalo"
V:3 bass 
V:1
"^Adagio" z4 FC- C/B,/A,/G,/ | A,2 z C- C/A,/B,/G,/ A,/F,/G,/=E,/ | F,2 z2 z/ C,/=E,/G,/ B,A,/G,/ | %3
 A,2 z2 z/ C,/=E,/G,/ B,A,/G,/ | A,2 z/ C/D/C/ B,2- B,/B,/C/B,/ | %5
 A,2- A,/A,/B,/A,/ G,/B,/A,/G,/ A,/C/B,/A,/ | G,2 z/ G,/A,/B,/ A,2 z/ G,/A,/B,/ | %7
 A,/B,/B,/C/ C/D/D/C/ B,/C/C/D/ D/C/C/B,/ | A, A,2 G, A,C/B,/ A,>G, | %9
 A,C/B,/ A,>G, A,F/D/{C} TB,2 | A,E,- E,/D,/C,/B,,/ C,A,B,G, | %11
 A,/E,/A,/C/ E>D C/A,/B,/G,/ E/C/D/B,/ | C>CB,>B, A,>A,G,>G, | F,>F,B,A, G,2 C2 | B,2 =D2 CED=B, | %15
 C/F/F/E/ E/=D/D/C/ C/=B,/B,/E/ E/D/D/C/ | =B,/=A,/B,/C/ =DD G,/G/F/E/ D2 | %17
 CE/=D/ C>=B, CE/D/ C>B, | C>=D{C} =B,2 C2 z2 | z G,- G,/F,/E,/=D,/ E,2 z2 | %20
 z C- C/B,/A,/G,/ A,2 C2- | C2 B,4 A,2- | A,2 G,4 F,2 | =E,2 z/ E,/F,/G,/ F,2 z/ E,/F,/G,/ | %24
 F,/G,/G,/A,/ A,/B,/B,/A,/ G,/A,/A,/B,/ B,/A,/A,/G,/ | F, F,2 =E, F,A,/G,/ F,>E, | %26
 F,A,/G,/ F,>=E, F,D/B,/{A,} TG,2 | F,/A,A,A,A,/ A,2 G,2 | F,4 z4 |] %29
[M:4/4][Q:1/4=110]"^Allegro" z | z8 | z8 | z8 | z8 | z8 | z4 z2 z G, | %36
 F,/E,/=D,/C,/ A,G, ^F,G, z =F, | E,3/2=D,/4C,/4 D,=B,, C,G,, z/ E/=D/C/ | %38
 =D/^F,/G, z/ C/B,/A,/ B,/=D,/E, z/ A,/G,/=F,/ | G,=A,/=B,/ C/G,/E,/C,/ _A, A,2 G,/F,/ | %40
 E,=D,/C,/ TD,2 C,G, z G, | z G, z G, z/ G,/=A,/=B,/ C_B, | _A,2 z2 z4 | z4 z/ F,/G,/=A,/ B,_A, | %44
 G,2 z2 z2 z C/A,/ | B,2 z B,/D/ C2 z C/A,/ | B,2 z B,/D/ CC/D/ CB, | A,G,CB, A,G,CB, | %48
 A,G, E4 D2- | D2 C4 B,2 | A,2 z/ A,/G,/B,/ A,2 z/ A,/G,/B,/ | A,8 | B,8 | C2 z2 z F/G/ FE | %54
 =D2 z2 z E/F/ E_D | CC/D/ CB, A,E/F/ ED | C4 D2 CB, | A, A,2 G, A, A,2 G, | A,2 TG,2 A,2 z C/A,/ | %59
 B,2 z B,/G,/ A,/B,/C/B,/ A,/G,/F,/E,/ | D,2 D2 CD TB,2 | A,2 z2 A,B,/C/ D2 | CA, TG,2 A,2 z :: E | %64
 D/C/B,/A,/ FE =DE z _D |{D} CB,/A,/{C} B,A,/G,/ A,C/A,/ F,2 | z8 | z4 z =D/E/ FA, | %68
 G,2 z2 z =B,/C/ =DF, | E,GFE =D3/2E/4F/4 ED | EE=DC =B,3/2C/4D/4 CB, | CE,F,A, G,=A,/=B,/ C=D/E/ | %72
 F>E=DC =B,/G,,/A,,/G,,/ G,/F,/E,/=D,/ | E,2 z2 z/ G,,/A,,/G,,/ G,/F,/E,/=D,/ | E,2 z2 z C =D2- | %75
 D/E/=B,/=D/ C2- C/E/=A,/C/ B,2 | C2 z E =D2 z =B, | C C2 =B, C2 z2 | z8 | z4 z2 z C | %80
 B,/A,/G,/F,/ DC =B,C z _B, | =A,/F,/C,/=A,,/ F,,E D/C/B, z2 | z4 z2 C2- | C2 B,4 A,2 | G,2 z2 z4 | %85
 F,/C,/A,/F,/ C/A,/F/C/ A,/C/A,/F,/ A,/C/A,/F,/ | G,2 z2 z4 | %87
 F,/C,/A,/F,/ C/A,/F/C/ A,/C/A,/F,/ A,/C/A,/F,/ | D4- D/D/E/F/ ED | C4- C/C/D/E/ DC | %90
 B,3 A, G,2 z2 | z C/D/ CB, A,2 z2 | z C/D/ CB, A,2 C2- | CB, D/C/B,/A,/ G,2 z =E,/F,/ | %94
 G,2 z G F F2 =E | F2 z A,/F,/ G,2 z G,/=E,/ | F,2 z A,/F,/ G,2 z G,/=E,/ | F,2 z2 z C/B,/ A,A, | %98
 B,2 TG,2 A,/B,/ C2 C | B,G =E2 F2 z :|[M:3/4][Q:1/4=140]"^Allegro" z6 | z6 | z6 | z6 | z6 | z6 | %106
 z6 | z6 | z6 | z6 | z6 | z6 | C3 G, E,C, | B,,A,, A,3 F, | =D3 =D, =B,,F,, | E,,G,, C,,2 z E, | %116
 E,=D, G,3 F, | F,E, C3 B, | B, A,2 G,2 ^F, | G,/=A,/=B,/C/ =D3 E, | E,C, A,2 =B,,2 | C,2 z2 z2 | %122
 z6 | z6 | z F,/G,/ A,/G,/F,/=E,/ F,F | F=E E3 _E | DB,_G,E,C,=A, | B,2 z2 z2 | %128
 z F,/=E,/ F,C,A,F, | F,_E,/=D,/ E,2 z E, | =D,E,/F,/ G, G,2 G, | G,^F, F,2 =A,2 | G, G,2 G,2 =B, | %133
 C3/2=D/4E/4 D2 C2 | =B,G,,=B,,=D, G,/=A,/B,/C/ | =D=B,G,=D,=B,,G,, | F,,F,/G,/ A, G,2 F, | %137
 E,2 z2 z2 | z6 | z6 | z C/B,/ A,G,F,E, | =D,2 z2 z2 | z C2 =B,/C/ =DC/B,/ | C E2 =D/E/ FE/D/ | %144
 E E2 =D2 C | =B,2 C2 z ^F, | G,/=A,/=B,/C/ =D4 | C/=B,/C/=D/ E4 | =D/C/=B,/C/ D4 | %149
 C/=B,/C/=D/ E4 | =D/C/=B,/C/ D/C/B,/=A,/ G,/F,/E,/=D,/ | C,/=B,,/C,/=D,/ E,G,CE | %152
 FE/=D/{C} T=B,4 | C/=B,/C/=D/ EGFE | F2{E} T=D4 |1 C4 z2 :|2 C4 z2 |: C3 G, E,C, | B,,A,, A,3 F, | %159
 =D3 =D, =B,,F,, | E,,G,,C,,=E,F,G, | A,/G,/A,/B,/ CA, F,2 | z F, B,2 z D | C2 z =E, G,G, | %164
 G,F, z =A, B,C | D/C/B,/=A,/ B,2 z2 | z2 z C =D=E | FCA,F,C,C | F4 T=D2 | EB,G,E,B,,B, | E4 TC2 | %171
 DF/E/ FDCB, | CE/D/ ECB,A, | B,CDCB,A, | G,E,/F,/ G,2 z B, | A,2 A,2 G,2 | A,/G,/A,/B,/ CEDC | %177
 D2{C} TB,4 | A,4 z2 | z6 | z2 z2 z D | DC F3 F | F=E E2 z2 | z2 z2 z F, | DB,/C/ D2 =D2 | E2 _D4 | %186
 CA,/B,/ C4 | D D2 C/D/ ED | C C2 B,/C/ DC | B, B,2 B,2 B, | A, A,2 A,2 A, | G, B,2 G, F,F, | %192
 =E,2 z2 z2 | z6 | z/ C/=B,/C/ =D/C/B,/C/ =E,/C/B,/C/ | F,/C/=B,/C/ G,/C/B,/C/ A,/C/B,/C/ | %196
 G,=E/F/ G4- | GC F4- | FE/=D/ E4- | E_D/C/ D4- | DDCB,A,G, | F, F2 =E/F/ GF/E/ | %202
 F A,2 G,/A,/ B,A,/G,/ | A,2 C2 B,/A,/G,/F,/ | =E,2 F,2 z =B, | C=E,/F,/ G,4 | F,/=E,/F,/G,/ A,4 | %207
 G,=E,/F,/ G,4 | F,/=E,/F,/G,/ A,4 | G,/A,/B,/C/ D/C/B,/A,/ G,/B,/A,/G,/ | F,/=E,/F,/G,/ A,2 z C | %211
 B,G,{F,} T=E,4 | F,/=E,/F,/G,/ A,CB,A, | B,2{A,} TG,4 | F,4 z2 :| %215
V:2
 fc- c/B/A/G/ AFG=E | F/C/F/A/ c>B A/F/G/=E/ c/A/B/G/ | A/c/f/g/ ag/f/ =e2 z2 | %3
 z/ c/f/g/ ag/f/ =e2 z2 | z/ c/d/c/ f2- f/d/c/B/ e2- | e/c/B/A/ d2- d/d/c/B/ c/e/d/c/ | %6
 B/E/F/E/ e>d c/E/F/E/ e>d | c/d/d/e/ e/f/f/A/ G/A/A/B/ B/c/c/d/ | cB/A/ TB2 A/F/e/d/ c>B | %9
 A/E/e/d/ c>B AB/F/ TG2 | A2 z2 ae- e/d/c/B/ | c2 z e- e/c/d/B/ c/A/B/G/ | %12
 A/e/a- a/g/b/d/- d/c/f- f/=e/g/B/- | B/A/d- d/B/c/A/ B/E/e- e/c/f/e/ | %14
 =d/B/f- f/d/g/f/ e/c/g- g/d/g/f/ | e/a/a/g/ g/f/f/e/ e/=d/d/c/ c/=B/B/c/ | %16
 =d/c/d/e/ f/A/G/F/ E=D/C/ T=B,2 | C/G,/G/F/ E>=D C/G,/G/F/ E>D | C/G/A/F/{E} T=D2 CG- G/F/E/D/ | %19
 E2 z2 z c- c/B/A/G/ | A2 z2 z f- f/e/d/c/ | df e/d/c/B/ ce d/c/B/A/ | %22
 Bd c/B/A/G/ A/G/A/c/ B/A/G/F/ | G/C/D/C/ c>B A/C/D/C/ c>B | A/B/B/c/ c/d/d/F/ =E/F/F/G/ G/A/A/B/ | %25
 AG/F/ TG2 F/C/c/B/ A>G | F/C/c/B/ A>G FG/=D/ T=E2 | F/fffF/ F2 =E2 | F4 z4 |][M:4/4][K:treble] c | %30
 B/A/G/F/ dc =Bc z _B | A3/2G/4F/4 G=E FC z/ a/g/f/ | g/=B/c z/ f/e/d/ e/G/A z/ d/c/_B/ | %33
 c=d/=e/ f/c/A/F/ _d d2 c/B/ | AG/F/ TG2 FA/F/ Gc | =B/c/=d/e/ ff f/d/e z2 | z4 z2 =B/c/=d | %37
 G2 z2 z e/=d/ c2 | z =d/B/ c2 z B/G/ A2 | z C/=D/ EG F F2 E/D/ | C C2 =B, C2 x2 | x8 | %42
 z c z c z c z c | z/ c/=d/=e/ f_e d2 z2 | z/ B/c/=d/ e_d ce/f/ e2 | z E/F/ E2 z e/f/ e2 | %46
 z E/F/ E2 z e/f/ ed | cBed cBed | cB z2 FG/A/ BA | G/B/A/G/ Ae dc/d/ ed | %50
 ca/f/ e/c/B/d/ ca/f/ e/c/B/d/ | c/A/e/A/ d/A/f/A/ e/A/_g/A/ f/A/e/A/ | %52
 =d/B/f/B/ e/B/=g/B/ f/B/a/B/ g/B/f/B/ | =e/c/g/e/ c/B/A/G/ A2 c2- | c/B/f/=d/ B/A/G/F/ G2 z2 | %55
 z e/f/ ed cc/d/ cB | A_G/F/ G/B/A/G/ F/A/=G/B/ Ad | cA B3/2c/4d/4 cA B3/2c/4d/4 | %58
 cA TB2 Aa/b/ a2 | z g/a/ gd c/d/e/d/ c/B/A/G/ | F/f/e/d/ c/B/A/G/ AB{A} TG2 | AB/c/ d2 cd/e/ f2 | %62
 eA TB2 A3 :: x | x8 | x4 z2 z c | B/A/G/F/ dc =Bc z _B | AG/F/ cE =D2 z2 | z c/=d/ eG F2 z2 | %69
 z e=dc =B3/2c/4d/4 cB | cGFE =D3/2E/4F/4 ED | Ec z c z c z c | c=d/e/ fe d2 z2 | %73
 z/ c/=B/c/ g/e/=d/c/ B2 z2 | z/ C/=B,/C/ G/E/=D/C/ A2- A/B/F/A/ | G2- G/A/E/G/ F2- F/A/G/F/ | %76
 E/G/F/A/ Gc =B/=d/c/e/ dF | E=D/C/ TD2 C2 z G | F/E/=D/C/ AG ^FG z =F | =E3/2=D/4C/4 GB, B,2 A,2 | %80
 x8 | x4 x2 x a | g/e/B/G/ Ed' c'/b/a z F/E/ | D/F/G/=A/ B/c/d/B/ G/B/_A/G/ F/A/G/F/ | %84
 =E/C/G/C/ F/C/A/C/ G/C/B/C/ A/C/G/C/ | A2 z2 z4 | =E/C/G/C/ F/C/A/C/ G/C/B/C/ A/C/G/C/ | %87
 A2 z2 z4 | z/ f/g/a/ b/a/g/f/ g2 g2- | g/g/a/b/ a/g/f/=e/ f2 f2- | f/f/g/a/ gf =ec/d/ cB | %91
 AA/B/ AG Fc/d/ cB | AA/B/ AG Fe/=d/ e/g/f/e/ | =df/=e/ f/a/g/f/ ec/d/ e/f/g/a/ | bg=eB AF TG2 | %95
 Ff/g/ f2 z =e/f/ gB | Af/g/ f2 z =e/f/ gB | A/F/G/A/ B/c/=d/=e/ f/g/a/g/ fF | d2 =E2 F/G/A/G/ FC | %99
 DB TG2 F3 :|[M:3/4] f3 c AF | ED d3 B | g3 G =EB, |[I:staff +1] A,C F,2[I:staff -1] z A | %104
 AG c3 B | BA f3 e | e d2 c2 =B | c/=d/=e/f/ g3 _B | AF d2 =E2 | Ff/g/ a2 g2 | f=d/e/ f2 e2 | %111
 =d/e/f/g/ a g2 f | e/=d/e/f/ ge c2 | z c f2 z a | g2 z =B =d2 | z c/=d/ ecGc | c=B B3 =d | %117
 =dc e2 z g | c2 =B2 c2 | =B2 z G/=A/ B=d | cGGF FE/=D/ | Ec/=d/ e/d/c/=B/ cc' | c'=b b2 z _b | %123
 af_dBG=e | f2 z2 z2 | x6 | x6 | z B/=A/ BFdB | B_A/G/ A2 z A | G=A/=B/ c c2 c | c=B B2 z _B | %131
 B =A2 =d c2 | =B2 c2 =d2 | e3/2f/4g/4 f2 e2 | =d2 z2 z2 | z6 | x6 | z CEG c/=d/e/f/ | gecGEC | %139
 B,B/c/ d c2 B | A2 z2 z2 | z =d/c/ BAGF | E e2 =d/e/ fe/d/ | e c2 =B/c/{e} =dc/B/ | c c2 _B2 A | %145
 G2 ^F2 z c | =B/c/=d/e/ f4 | e/=d/c/=B/ c4 | =B/c/=d/e/ f4 | e/=d/c/=B/ c4 | %150
 =B/c/=d/e/ f/e/d/c/ B/=A/G/F/ | E/=D/E/F/ G2 z c |{B} AG/F/{E} T=D4 | Ce/f/ ge=dc | a2 =B4 |1 %155
 c4 z2 :|2 c4 z2 |: x6 | x6 | x6 | x6 | f3 c AF | ED d3 B | g3 G=EB, | %164
[I:staff +1] A,C F,2[I:staff -1] z2 | z2 z =B c=d | e/=d/c/=B/ c=efg | %167
 a/f/=e/f/ c/f/e/f/ a/f/e/f/ | a/f/=e/f/ b/a/g/f/ b/a/g/f/ | g/_e/=d/e/ B/e/d/e/ g/e/d/e/ | %170
 g/e/d/e/ a/_g/f/e/ a/g/f/e/ | fd/c/ dfed | ec/B/ cedc | dcBAGF | E/F/G/A/ B2 z D | CA TB,4 | %176
 A,c/d/ ecBA | f2 TG4 | A2 z2 z c | cB e3 e | ed d2 x2 | x6 | x2 x2 z c | af/g/ a2 =a2 | b2 T_a4 | %185
 ge/f/ Tg4 | a2 _g4 | f f2 e/f/ _gf | e e2 d/e/ fe | d d2 d2 d | c c2 c2 c | B g2 B Af | %192
 G/c/=B/c/ =d/c/B/c/ =E/c/B/c/ | F/c/=B/c/ G/c/B/c/ A/c/B/c/ | G2 x2 x2 | x6 | z2 z =e/f/ gB | %197
 A2 z =d/e/ fA | G3 G/B/ AG | F3 F/A/ GF | =E3 E FG | A a2 g/a/ ba/g/ | a f2 =e/f/ gf/e/ | %203
 f f2 _e2 d | c2 =B2 z f | =e/f/g/a/ b4 | a/g/f/=e/ f4 | =e/f/g/a/ b4 | a/g/f/=e/ f4 | %209
 =e/f/g/a/ b/a/g/f/ e/=d/c/B/ | A/G/A/B/ c2 z F | dc/B/{A} TG4 | FG/A/ BAGF | d2 T=E4 | F4 z2 :| %215
V:3
 F,,F,=E,C, F,,F,E,C, | F,2 z C, F,,2 z C, | F,F,,F,,B,, C,C,, z C, | F,F,, z =B,, C,C,, z C, | %4
 F,2 z/ A,/B,/A,/ G,2- G,/G,/A,/G,/ | F,2- F,/F,/G,/F,/ E,E,,A,,D, | %6
 E,2 z/ E,,/F,,/G,,/ A,,2 z/ E,,/F,,/G,,/ | A,,2 z D, E,2 z E, | A,,C,D,E, A,,2 z/ A,,/C,/E,/ | %9
 A,2 z/ A,,/C,/E,/ A,D,E,E,, | A,,A,,G,,E,, A,,A,G,E, | A,2 z E, A,,2 z E, | %12
 A,A,,E,G,, A,,F,,C,=E,, | F,,2 G,,A,, E,,2 =A,,2 | B,,2 =B,,2 C,C=B,G, | C,2 z G,, C,2 z C, | %16
 G,G,, z =B,, C,F,G,G,, | C,2 z/ C,,/E,,/G,,/ C,2 z/ C,,/E,,/G,,/ | C,F,G,G,, C,E,=B,,G,, | %19
 C,E,=B,,G,, C,C,,=D,,=E,, | F,,F,=E,C, F,2 =A,,2 | B,,_A,,G,,E,, A,,G,,F,,D,, | %22
 G,,F,,=E,,C,, F,,2 F,2 | C,2 z/ C,,/=D,,/=E,,/ F,,2 z/ C,,/D,,/E,,/ | F,,2 z B,, C,2 z C, | %25
 F,A,,B,,C, F,,2 z/ F,,/A,,/C,/ | F,2 z/ F,,/A,,/C,/ F,B,,C,C,, | D,C,=B,,B,, C,2 C,,2 | F,,4 z4 |] %29
[M:4/4] z | z F,B,C DC z =E, | F,A,,B,,C, F,,2 F,2 | E,2 D,2 C,2 B,,2 | A,,2 F,,2 =E,,2 C,,2 | %34
 F,,A,,B,,C, F,,F,E,C, | =D,C,=B,,G,, C,C/=B,/ C2 | z C,,F,,G,, A,,G,, z =B,, | %37
 C,E,,F,,G,, C,,2 C,2 | B,,2 A,,2 G,,2 F,,2 | E,,2 C,2 =B,,2 G,,2 | C,E,,F,,G,, C,2 =D,2 | %41
 E,2 F,2 E,2 z =E, | F,2 G,2 A,2 B,2 | A,2 z =A, B,2 z =D, | E,2 z G, A,2 z A, | %45
 G,2 z E, A,2 z A, | G,2 z E, A,2 z E, | A,,E,E,E, E,E,E,E, | E,2 z D, D,2 B,,2 | %49
 E,2 A,,2 B,,2 G,,2 | A,,2 z E, A,2 z E, | A,,_G,F,D, C,A,,D,C, | B,,A,G,E, =D,B,,E,_D, | %53
 C,2 =E,2 F,2 =A,,2 | B,,2 =D,2 E,2 z2 | z4 z2 z E, | A,A,,C,A,, D,E,F,G, | A,C,D,E, A,,C,D,E, | %58
 A,,C,E,E,, A,,2 z A,, | E,2 z E, A,2 z2 | z2 z E, F,D,E,E,, | A,,A,,A,,A,, A,,A,,A,,A,, | %62
 A,,C,E,E,, A,,C,/E,/ A, :: z | z A,,D,E, F,E, z G, | A,F,G,=E, F,2 z2 | z F,B,C DC z =E, | %67
 F,2 =A,,2 B,,2 =D,2 | E,2 C,2 =D,2 =B,,2 | C,CF,^F, G,G,, z G,, | C,C,,F,,^F,, G,,G, z G,, | %71
 C,2 =D,2 E,2 C,2 | A,2 F,2 G,2 =B,,2 | C,2 E,2 G,2 =B,,2 | C,2 E,2 F,2 B,,2 | E,2 A,,2 =D,2 G,,2 | %76
 C,=D,E,C, G,,=A,,=B,,G,, | C,E,F,A, C,G,,/E,,/ C,,2 | z C,F,G, A,G, z =B,, | C,2 =E,2 F,2 F,,2 | %80
 z F,,B,,C, D,C, z =E, | F,2 z =A, B,B,,/C,/ D,=D, | E,2 z G, A,2 z A,, | B,,2 G,,2 =E,,2 F,,2 | %84
 C,B,A,F, =E,C,=D,E, | F,2 z2 F,,2 z2 | C,B,A,F, =E,C,=D,E, | F,2 z2 F,,2 z2 | B,,2 D,2 E,2 E,,2 | %89
 A,,2 C,2 D,2 D,,2 | G,,2 B,,2 C,2 z2 | z2 z =E, F,2 z2 | z2 z =E, F,2 =A,,2 | B,,2 B,,2 C,2 z2 | %94
 z2 z =E, F,A,B,C | F,2 z F,, C,2 z C, | F,2 z F,, C,2 z C, | F,2 G,2 A,2 z D, | %98
 B,,G,,C,C,, F,,2 z A,, | B,,2 C,2 F,,3 :|[M:3/4] F,2 F,,2 F,2 | B,2 z D B,G, | =E,G, C,2 z E, | %103
 F,2 z F,,A,,F,, | C,2 z C, =D,=E, | F,2 z F,, G,,=A,, | B,,2 C,2 D,2 | C,2 z C, =D,=E, | %108
 F,2 B,,2 C,2 | F,,2 F,2 E,2 | =D,2 =B,,2 C,2 | G,2 z G,, =A,,=B,, | C,2 C,,2 C,,2 | %113
 F,,2 z A, F,=D, | =B,,D, G,,2 z B,, | C,2 z C,, E,,C,, | G,,2 z G,, =A,,=B,, | %117
 C,2 z C,, =D,,=E,, | F,,2 G,,2 A,,2 | G,,2 z =B,,/=A,,/ G,,B,, | C,E,, F,,2 G,,2 | C,,2 z2 E,,2 | %122
 G,,4 =E,2 | F,2 B,2 C2 | F,4 F,,2 | G,,4 =A,,2 | B,,2 E,,2 F,,2 | B,,2 B,,2 B,,2 | %128
 F,,2 F,,2 F,,2 | C,2 C,2 C,2 | G,,2 G,,2 G,,2 | D,2 D,2 D,2 | G,F,E,C,=B,,G,, | C,2 F,2 ^F,2 | %134
 G,2 z2 z2 | z6 | z2 z G,, =A,,=B,, | C,2 z2 z2 | z6 | z2 z C, =D,=E, | F,2 F,,2 =A,,2 | %141
 B,,4 =B,,2 | C,2 C,,2 G,,2 | C,2 C,,2 G,,2 | C,2 C,,2 F,,2 | G,,2 A,,2 z A,, | %146
 G,,2 z/ G,,/=B,,/=D,/ G,G,, | C,2 z/ C,/E,/G,/ CC, | G,2 z/ G,,/=B,,/=D,/ G,/D,/B,,/G,,/ | %149
 C,2 z/ C,/E,/G,/ C/G,/E,/C,/ | G,2 G,,2 G,,2 | C,,2 z C, E,C, | F,2 G,2 G,,2 | C,2 z2 C,2 | %154
 F,2 G,2 G,,2 |1 C,E,/G,/ CB,A,G, :|2 C,E,/G,/ CG,E,G, |: C,2 C,,2 C,,2 | F,,2 z F,, F,=D, | %159
 =B,,D, G,,2 z B,, | C,3 _B,, A,,G,, | F,,2 F,,2 F,,2 | B,,2 z D, B,,G,, | =E,,G,, C,,2 z E,, | %164
 F,,2 z E, D,C, | B,,2 z F, E,=D, | C,2 z B, A,G, | F,2 F,,2 F,,2 | z2 =D,2 B,,2 | E,2 E,,2 E,,2 | %170
 z2 C,2 A,,2 | D,2 z2 z2 | A,,2 z2 z2 | E,,2 z2 z2 | z2 z E,, F,,G,, | A,,2 D,2 E,2 | %176
 A,,2 z2 A,,2 | D,2 E,2 E,,2 | A,,/B,,/C,/B,,/ A,,C,E,A, | E,2 z E, G,E, | B,2 z B,, D,B,, | %181
 F,2 z F, A,F, | C2 z C, C/B,/A,/G,/ | F,2 z F,, F,,F,, | B,,2 z B,, B,,B,, | E,,2 z E,, E,,E,, | %186
 A,,2 z A,, A,,A,, | D,2 D,2 D,2 | A,,2 A,,2 A,,2 | E,,2 G,,2 E,,2 | A,,2 F,,2 F,2 | %191
 =E,2 =E,,2 F,,2 | C,2 z2 B,2 | A,2 G,2 F,2 | =E,2 z2 B,,2 | A,,2 G,,2 F,,2 | %196
 =E,,2 z C,/=D,/ =E,D, | F,2 z B,,/C,/ =D,B,, | E,2 C,2 A,,2 | D,2 B,,2 G,,2 | C,2 z C, =D,=E, | %201
 F,2 F,,2 C,2 | F,2 F,,2 C,2 | F,2 =A,,2 B,,2 | C,2 D,2 z D, | C,2 z/ C,/=E,/G,/ CC, | %206
 F,2 z/ F,,/A,,/C,/ F,F,, | C,2 z/ C,,/=E,,/G,,/ C,/G,,/E,,/C,,/ | %208
 F,,2 z/ F,,/=A,,/C,/ F,/C,/A,,/F,,/ | C,2 C,,2 C,,2 | F,,2 z F,, G,,A,, | B,,2 C,2 C,,2 | %212
 F,,2 z2 F,,2 | B,,2 C,2 C,,2 | F,,4 z2 :| %215

